X:1
T:Title
%%score { ( 1 3 5 ) | ( 2 4 ) }
L:1/8
M:3/4
K:Eb
V:1 treble nm="Grand Piano"
V:3 treble 
V:5 treble 
V:2 treble 
V:4 treble 
V:1
 z2 z[Q:1/4=94] B GA | [GB]4 z2 | [Ad]4 z2 | B4 z2 |[M:3/8] [EG]3 | BGA |[M:3/4] [GB]4 z2 | %7
 z2 Ee [Bd]c | [GB]3 E [B,G]F |[M:3/8] [G,E]3 | z z [G,E] |[M:3/4] e4 d2 | B4 z2 | A4 z2 | %14
[M:3/8] B3 | EEE |[M:3/4] e4 d2 | B4 z2 | B4 z2 |[M:3/8] E3 |] %20
V:2
 z2 z G EF | E,B, G,E z G | B,,B, A,F z A | B,,B, A,D z F |[M:3/8] E,B,,E,, | GEF | %6
[M:3/4][K:bass] E,B, G,[K:treble]E FG | A,,C A,[K:treble]c[K:bass] z A | B,,B, G,E, z A, | %9
[M:3/8] E,B,,E,, | EEE, |[M:3/4] A,,A,, z[K:treble] e[K:bass] B,>A, | %12
 [E,G,E][E,G,] [E,G,]2 [E,G,E]2 | [F,B,D][F,B,] [B,,B,]2 z z/[K:treble] c/ | %14
[M:3/8][K:bass] [E,E][E,E][E,E] | z z [E,G,] |[M:3/4] [A,,CE]A,, z[K:treble] e[K:bass] B,>A, | %17
 [E,G,E][E,G,] [E,G,]2 G,A, | [B,,G,][B,,G,] [B,,G,][B,,G,B,] [B,,F,B,]>[B,,A,B,] | %19
[M:3/8] [E,G,B,]3 |] %20
V:3
 x6 | z2 EG [GB]e | z2 DA [Bd]c | D2 DF [DB]A |[M:3/8] x3 | x3 |[M:3/4] z2 EG AB | [Ac]4 z2 | x6 | %9
[M:3/8] x3 | x3 |[M:3/4] [CE][CE] [CE]2 E->[Ec] | z E z G c>B | z D z F [DAd]2 |[M:3/8] GGG | x3 | %16
[M:3/4] z [CE] [CE]2 E->[Ec] | z E z G z c | EE EE D>F |[M:3/8] x3 |] %20
V:4
 x6 | z2 z2 B,2 | z2 z2 B,,2 | z2 z2 B,,2 |[M:3/8] x3 | x3 | %6
[M:3/4][K:bass] z2 z2[K:treble] [B,_D]2 | z2 z2[K:treble][K:bass] A,,2 | z2 z2 B,,2 |[M:3/8] x3 | %10
 x3 |[M:3/4] z2 A,,2[K:treble][K:bass] A,,2 | x6 | z2 z2 B,,2[K:treble] |[M:3/8][K:bass] x3 | x3 | %16
[M:3/4] z2 A,,2[K:treble][K:bass] A,,2 | z2 z2 E,2 | x6 |[M:3/8] x3 |] %20
V:5
 x6 | x6 | x6 | x6 |[M:3/8] x3 | x3 |[M:3/4] x6 | x6 | x6 |[M:3/8] x3 | x3 |[M:3/4] x6 | z2 E2 z2 | %13
 z2 D2 z2 |[M:3/8] x3 | x3 |[M:3/4] x6 | z2 E2 E2 | x6 |[M:3/8] x3 |] %20

